!!!SOCIAL_FUNCTION:	isleta
!!!PDT:	1957
!!!OTL: No_41_The_Coming_of_the_Sun.krn
!!!LING_GROUP: Keresan
!!!LANG: Tone
!!!REG: Southwest
**kern
*staff1
=1-
*clefF4
*k[b-e-a-]
*M3/4
4e-\
4e-\
8.e-\L
16c\Jk
=2
4e-\
4e-\
8e-\
16r
16e-\
=3!|:
*M2/4
4g\
16g\LL
16e-\J
8e-\J
=4
4e-\
16e-\LL
16B-\J
8B-\J
=5
8.c\L
16c\Jk
8B-\
8r
=6
4e-\
16e-\LK
8B-\
16B-\Jk
=7
8G\L
8G\J
4E-\
=8
*M3/4
8G\L
8E-\J
8E-\L
16G\L
16G\JJ
8E-\
16r
16G\
=9
*M2/4
4c\
8c\L
16B-\L
16B-\JJ
=10
4G\
4E-\
=11
16G\LL
16G\
16G\
16G\JJ
8E-\
16r
16G\
=12
4c\
16c\LK
8B-\
16G\Jk
=13
16B-\LK
8.G\J
8E-\
8r
=14
8G\L
8E-\J
8G\L
16E-\L
16E-\JJ
=15
*M3/4
8B-\L
16G\L
16B-\JJ
16B-\LK
8.G\J
8E-\
16r
16E-\
=16
*M2/4
4c\
32c\LLK
16.G\J
8B-\J
=17
*M3/4
4G\
8E-\L
8E-\J
8E-\
8r
=18
*M2/4
16G\LK
8.E-\J
4E-\
=19
16G\LK
8.E-\J
4E-\
=20
8r
8E-\
8E-\
16r
16E-\
=21:|!|:
4g\
16g\LL
16e-\J
8e-\J
=22
4e-\
16e-\LL
16B-\
16B-\JJ
16r
=23
4c\
16c\LL
16B-\J
8B-\J
=24
8B-\L
8G\J
8E-\L
8E-\J
=25
8G\L
8G\J
8E-\
8r
=26
16G\LL
16E-\J
8E-\J
16G\LK
8.E-\J
=27
8G\L
8G\J
8E-\
8r
=28
16G\LL
16E-\J
8E-\J
16E-\LK
8.E-\J
=29
8G\L
16B-\L
16G\JJ
8E-\
16r
16E-\
=30
4c\
16c\LK
8G\
16B-\Jk
=31
8G\L
8G\J
8E-\
16r
16E-\
=32
4c\
16c\LK
8G\
16B-\Jk
=33
8G\L
8G\J
8E-\
8r
=34
8G\L
16E-\L
16E-\JJ
8G\L
8E-\J
=35
*M5/8
8B-\L
16B-\L
16G\J
8B-\
8B-\
8G\J
=36
16G\LL
16E-\J
8E-\J
4E-\
8r
=37
*M2/4
16G\LK
8.E-\J
4E-\
=38
16G\LK
8.E-\J
4E-\
=39
8r
8E-\
8E-\
16r
16E-\
=40:|!
8r
8E-\
8.E-\L
16E-\Jk
=41
4g\
16g\LL
16e-\J
8e-\J
=42
4e-\
16e-\LL
16B-\J
8B-\J
=43
8.c\L
16c\Jk
8B-\
8r
=44
4e-\
16e-\LK
8G\
16B-\Jk
=45
8G\L
8G\J
4E-\
=46
!!pagebreak:default
*M3/4
8G\L
8E-\J
16G\LL
16G\
16G\
16G\JJ
8E-\
16r
16G\
=47
*M2/4
4c\
8c\L
16B-\L
16B-\JJ
=48
4G\
4E-\
=49
16G\LL
16G\
16G\
16G\JJ
8E-\
16r
16G\
=50
4c\
16c\LK
8B-\
16G\Jk
=51
16B-\LK
8.G\J
8E-\
8r
=52
8G\L
8E-\J
8G\L
16E-\L
16E-\JJ
=53
*M3/4
8B-\L
16G\L
16B-\JJ
16B-\LK
8.G\J
8E-\
16r
16E-\
=54
*M2/4
4c\
32c\LLK
16.G\J
8B-\J
=55
*M3/4
4G\
8E-\L
8E-\J
8E-\
8r
=56
*M2/4
16G\LK
8.E-\J
4E-\
=57
8B-\L
8B-\J
16G\LL
16G\
16E-\
16E-\JJ
=58
*M3/4
8G\L
8B-\J
16G\LK
8.E-\J
8E-\
8r
=59
*M2/4
8E-\L
8G\J
8E-/L
8C/J
=60
8E-\L
8E-\J
8E-\L
8E-\J
=61
*M3/4
8E-\L
8B-\J
16B-\LK
8.G\J
8E-\
8r
=62
16G\LL
16E-\J
8E-\J
16G\LL
16E-\
16.E-\
32E-\JJk
8G\L
8B-\J
=63
8E-\L
8E-\J
8E-\L
8E-\J
8E-\L
8E-\J
==
*-
